_includes/icons/ios-adobe-indesign.svg

<svg fill="#666" height="50" viewBox="0 0 50 50" width="50" xmlns="http://www.w3.org/2000/svg"><path d="m6 4c-1.0930628 0-2 .9069372-2 2v38c0 1.093063.9069372 2 2 2h38c1.093063 0 2-.906937 2-2v-38c0-1.0930628-.906937-2-2-2zm0 2h38v38h-38zm11 8 .035156 22h2.464844v-22zm14.5 0v7.867188.007812c-.607-1.311-1.676875-1.875-2.796875-1.875-2.4 0-4.703125 2.372-4.703125 7.875 0 5.121 1.856469 8.4375 4.480469 8.4375 1.631 0 2.539531-.8495 3.019531-1.9375v1.625h2.5c-.032-.896 0-2.319 0-3.375v-18.625zm-2.253906 8.111328c1.184 0 2.112234 1.413672 2.240234 3.013672.032.351 0 .7435 0 1.0625v4.5625s-.029.587-.125.875c-.544 2.239-1.536687 2.638672-2.304687 2.638672-1.792 0-2.59375-3.124672-2.59375-6.388672 0-3.103.735203-5.763672 2.783203-5.763672z"/></svg>

<svg xmlns="http://www.w3.org/2000/svg" viewBox="0 0 50 50" width="50" height="50" fill="#666"><path style="line-height:normal;text-indent:0;text-align:start;text-decoration-line:none;text-decoration-style:solid;text-decoration-color:#000;text-transform:none;block-progression:tb;isolation:auto;mix-blend-mode:normal" d="M 6 4 C 4.9069372 4 4 4.9069372 4 6 L 4 44 C 4 45.093063 4.9069372 46 6 46 L 44 46 C 45.093063 46 46 45.093063 46 44 L 46 6 C 46 4.9069372 45.093063 4 44 4 L 6 4 z M 6 6 L 44 6 L 44 44 L 6 44 L 6 6 z M 17 14 L 17.035156 36 L 19.5 36 L 19.5 14 L 17 14 z M 31.5 14 L 31.5 21.867188 L 31.5 21.875 C 30.893 20.564 29.823125 20 28.703125 20 C 26.303125 20 24 22.372 24 27.875 C 24 32.996 25.856469 36.3125 28.480469 36.3125 C 30.111469 36.3125 31.02 35.463 31.5 34.375 L 31.5 36 L 34 36 C 33.968 35.104 34 33.681 34 32.625 L 34 14 L 31.5 14 z M 29.246094 22.111328 C 30.430094 22.111328 31.358328 23.525 31.486328 25.125 C 31.518328 25.476 31.486328 25.8685 31.486328 26.1875 L 31.486328 30.75 C 31.486328 30.75 31.457328 31.337 31.361328 31.625 C 30.817328 33.864 29.824641 34.263672 29.056641 34.263672 C 27.264641 34.263672 26.462891 31.139 26.462891 27.875 C 26.462891 24.772 27.198094 22.111328 29.246094 22.111328 z"/></svg>
